svgs/yemeksepeti.svg

<svg xmlns="http://www.w3.org/2000/svg" viewBox="0 0 192 192"><path d="M62.178 175.073c-8.943-3.218-11.917-8.506-10.985-19.535.837-9.893 5.148-22.831 13.398-40.208 3.542-7.46 6.44-14.202 6.44-14.98 0-.779-1.77-4.18-3.933-7.558-9.275-14.483-21.539-52.258-21.599-66.528-.023-5.632 3.261-7.614 11.618-7.01 8.01.58 15.597 5.01 18.871 11.021 1.263 2.318 4.077 12.358 6.253 22.311s4.311 18.487 4.745 18.963c.433.477 7.586-10.78 15.895-25.016 8.308-14.235 16.304-26.961 17.768-28.278 3.208-2.886 5.947-2.981 11.592-.403 4.982 2.276 12.935 10.53 13.918 14.445 1.088 4.337-.069 6.972-8.662 19.716-28.714 42.585-42.927 72.003-51.565 106.729-2.692 10.82-3.953 13.399-7.412 15.151-4.438 2.25-11.876 2.786-16.342 1.18Z"/></svg>

<svg
    xmlns="http://www.w3.org/2000/svg"
    viewBox="0 0 192 192"
    id="vector">
    <path
        id="path"
        d="M 62.178 175.073 C 53.235 171.855 50.261 166.567 51.193 155.538 C 52.03 145.645 56.341 132.707 64.591 115.33 C 68.133 107.87 71.031 101.128 71.031 100.35 C 71.031 99.571 69.261 96.17 67.098 92.792 C 57.823 78.309 45.559 40.534 45.499 26.264 C 45.476 20.632 48.76 18.65 57.117 19.254 C 65.127 19.834 72.714 24.264 75.988 30.275 C 77.251 32.593 80.065 42.633 82.241 52.586 C 84.417 62.539 86.552 71.073 86.986 71.549 C 87.419 72.026 94.572 60.769 102.881 46.533 C 111.189 32.298 119.185 19.572 120.649 18.255 C 123.857 15.369 126.596 15.274 132.241 17.852 C 137.223 20.128 145.176 28.382 146.159 32.297 C 147.247 36.634 146.09 39.269 137.497 52.013 C 108.783 94.598 94.57 124.016 85.932 158.742 C 83.24 169.562 81.979 172.141 78.52 173.893 C 74.082 176.143 66.644 176.679 62.178 175.073 Z"
        fill="#000000"
        stroke-width="12"/>
</svg>
